ocio_rec709_to_linear/luts/identity.spi1d
Version 1
From 0.0 1.0
Length 2
Components 1
{
  0.0
  1.0
}
